X:1
T:[ID 1-72]
T:[ID 1-72]
T:Bezeichnung standardisiert: Menuett Men
T:Urheber unbekannt Datum in der hier transkribierten schriftlichen Quelle: vermutlich vor 1767
C:Urheber unbekannt
C:Datum in der hier transkribierten schriftlichen Quelle: vermutlich vor 1767
L:1/8
M:3/4
K:D
V:1 treble 
V:1
 FE D2 E2 | F4 E2 | FAdFED | E2 A,4 | AGFEDC | B,2 G,4 | BAGFED | E2 A,4 | DFdece | d6 :: ededec | %11
 A4 A2 | B2 BcdB | ^A2 F4 | BFBFBF | cFcFcF | Bc d2 c2 | B4 B2 | dcdefa | d2 c2 d2 | ef g2 f2 | %21
 edcB A2 | AGFEDC | B,2 G,4 | BAGFED | E2 A,4 | DFdece | d6 :| %28

